X:114
T:When I was a young man
Z:Jack Campin - http://www.campin.me.uk
S:Blaikie MS (NLS MS.1578) p34, Blaikie #108
M:6/8
L:1/8
V:1 midi program 1 74
V:2 midi program 1 46 bass middle = d transpose -24
Q:3/8=90
K:F
[V:1] B|A>GF A<cC  |F2F  G2 B   |A>GF f>ed|c3   z2A| cde fed|
[V:2] z|F3   f3    |F2A  c2[ec']|f3   b3  |a3   f2z |F3  f3 |
%
[V:1]   cBA  G2c/B/|A>GF A<cC   |F2F  G2B |A>GF A<cC|F3  z2|]
[V:2]   F3   c3    |F3   f3     |F2A  c2c'|fga  c'2c|f3  z2|]
W:Transcription (c) Jack Campin 2009, no mirroring or republication without permission

